X:111
T: Master F. Sitwell's Reel
R: reel
M: C
L: 1/8
K: C
(E/F/) | GcEc A2(FA) | Gg f/e/d/c/ Bdd(e/f/) | ecGE A2(FA) | Gc Bd ecc :|
(e/f/) | geaf g2(ea) | geaf cddf | (ge).a.f (ge).c'.e | (f/e/).d/.c/ (Bg) ecc ||
(e/f/) | geaf g2(
